icons/Map/suitcase-line.svg

<svg viewBox="0 0 24 24" xmlns="http://www.w3.org/2000/svg"><path d="M15 3C15.5523 3 16 3.44772 16 4V6H21C21.5523 6 22 6.44772 22 7V20C22 20.5523 21.5523 21 21 21H3C2.44772 21 2 20.5523 2 20V7C2 6.44772 2.44772 6 3 6H8V4C8 3.44772 8.44772 3 9 3H15ZM16 8H8V19H16V8ZM4 8V19H6V8H4ZM14 5H10V6H14V5ZM18 8V19H20V8H18Z"/></svg>

<svg xmlns="http://www.w3.org/2000/svg" viewBox="0 0 24 24">
    <g>
        <path fill="none" d="M0 0H24V24H0z"/>
        <path d="M15 3c.552 0 1 .448 1 1v2h5c.552 0 1 .448 1 1v13c0 .552-.448 1-1 1H3c-.552 0-1-.448-1-1V7c0-.552.448-1 1-1h5V4c0-.552.448-1 1-1h6zm1 5H8v11h8V8zM4 8v11h2V8H4zm10-3h-4v1h4V5zm4 3v11h2V8h-2z"/>
    </g>
</svg>
